svg/set/STH/T.svg

<?xml version="1.0" encoding="UTF-8" standalone="no"?>
<svg xmlns="http://www.w3.org/2000/svg" xmlns:xlink="http://www.w3.org/1999/xlink" version="1.1" width="600" height="609.29169">
  <radialGradient cx="0" cy="0" r="1" fx="0" fy="0" id="radialGradient636" gradientUnits="userSpaceOnUse" gradientTransform="matrix(10.959595,0,0,-10.959595,401.04102,253.63086)" spreadMethod="pad">
    <stop style="stop-color:#bf99c3" offset="0"/>
    <stop style="stop-color:#7b5190" offset="0.66291797"/>
    <stop style="stop-color:#612c75" offset="1"/>
  </radialGradient>
  <radialGradient cx="0" cy="0" r="1" fx="0" fy="0" id="radialGradient624" gradientUnits="userSpaceOnUse" gradientTransform="matrix(17.761887,0,0,-17.761887,401,259.30273)" spreadMethod="pad">
    <stop style="stop-color:#bf99c3" offset="0"/>
    <stop style="stop-color:#7b5190" offset="0.66291797"/>
    <stop style="stop-color:#612c75" offset="1"/>
  </radialGradient>
  <radialGradient cx="0" cy="0" r="1" fx="0" fy="0" id="radialGradient2996" xlink:href="#radialGradient624" gradientUnits="userSpaceOnUse" gradientTransform="matrix(270.55426,0,0,270.55426,300,304.61951)" spreadMethod="pad"/>
  <radialGradient cx="0" cy="0" r="1" fx="0" fy="0" id="radialGradient2999" xlink:href="#radialGradient636" gradientUnits="userSpaceOnUse" gradientTransform="matrix(166.93976,0,0,166.93976,300.62483,391.01508)" spreadMethod="pad"/>
  <path d="m 600,609.2917 0,-302.31531 C 600,116.92308 460.83778,36.11577 454.94288,32.79513 c 0,0 -8.21021,-4.58492 -15.23229,-8.57578 C 442.68088,15.82635 448.21021,0 448.21021,0 L 151.48515,0 c 0,0 5.71211,15.7045 8.80426,24.28028 -7.02208,3.92993 -15.17136,8.51485 -15.17136,8.51485 C 139.22315,36.11577 0.06092917,116.92308 0.06092917,306.97639 L 0,609.23077 l 600,0.0609 z" style="fill:#ffffff"/>
  <path d="m 455.88728,585.8492 120.67022,0 0,-240.85301 -120.67022,0 0,240.85301 z m -432.444782,-0.0609 120.670222,0 0,-240.79208 -120.670222,0 0,240.79208 z m 432.505712,-278.76618 120.60929,0 C 576.5575,128.3473 443.3968,53.14547 443.3968,53.14547 l -42.30007,112.87129 c 0,0 54.85148,42.23914 54.85148,141.00533 M 198.9642,166.01676 156.66413,53.14547 c 0,0 -133.160703,75.20183 -133.160703,253.87662 l 120.609293,0 c 0,-98.76619 54.85148,-141.00533 54.85148,-141.00533 m -14.1051,-142.63519 230.3275,0 -50.14471,142.63519 -128.46916,0 L 184.8591,23.38157 z" style="fill:#612c75"/>
  <path d="m 196.77075,31.77456 45.69688,125.8492 116.67936,0 44.26504,-125.8492 -206.64128,0 z m 214.1965,131.7441 c 13.51104,12.7342 50.754,55.03427 53.19117,135.06474 l 0,0 103.96039,0 C 564.72201,158.46154 475.58264,85.39223 447.61615,65.86443 l 0,0 -36.6489,97.65423 z M 31.942117,298.5834 l 103.960393,0 c 2.43717,-80.03047 39.68013,-122.33054 53.19117,-135.06474 l 0,0 -36.6032,-97.65423 C 124.52399,85.39223 35.399848,158.46154 31.942117,298.5834 m -0.167555,278.87281 103.945168,0 0,-224.08226 -103.945168,0 0,224.08226 z m 432.505708,0 103.94517,0 0,-224.08226 -103.94517,0 0,224.08226 z" style="fill:url(#radialGradient2996)"/>
  <path d="m 290.47982,196.1767 0.12186,105.31607 -56.99924,0 0,-105.13329 -18.21782,0 0,105.13329 -48.13405,0 0,13.51104 48.13405,0 0,122.80274 -48.13405,0 0,12.91699 48.13405,0 0,135.06473 18.21782,0 0,-135.06473 56.99924,0 0,135.06473 18.20259,0 0,-135.06473 56.99923,0 0,135.06473 16.48134,0 0,-135.06473 51.71364,0 0,-12.91699 -51.71364,0 0,-122.80274 51.71364,0 0,-13.51104 -51.71364,0 0,-105.13329 -16.48134,0 0,105.13329 -56.99923,0 0,-105.31607 -18.32445,0 z m 18.32445,118.82711 56.99923,0 0,122.80274 -56.99923,0 0,-122.80274 z m -75.20183,0 56.99924,0 0,122.80274 -56.99924,0 0,-122.80274 z" style="fill:url(#radialGradient2999)"/>
</svg>

<?xml version="1.0" encoding="UTF-8" standalone="no"?>
<svg
   version="1.1"
   width="600"
   height="609.29169"
   id="svg9"
   xmlns:xlink="http://www.w3.org/1999/xlink"
   xmlns="http://www.w3.org/2000/svg"
   xmlns:svg="http://www.w3.org/2000/svg">
  <defs
     id="defs9" />
  <radialGradient
     cx="0"
     cy="0"
     r="1"
     fx="0"
     fy="0"
     id="radialGradient636"
     gradientUnits="userSpaceOnUse"
     gradientTransform="matrix(10.959595,0,0,-10.959595,401.04102,253.63086)"
     spreadMethod="pad">
    <stop
       style="stop-color:#bf99c3"
       offset="0"
       id="stop1" />
    <stop
       style="stop-color:#7b5190"
       offset="0.66291797"
       id="stop2" />
    <stop
       style="stop-color:#612c75"
       offset="1"
       id="stop3" />
  </radialGradient>
  <radialGradient
     cx="0"
     cy="0"
     r="1"
     fx="0"
     fy="0"
     id="radialGradient624"
     gradientUnits="userSpaceOnUse"
     gradientTransform="matrix(17.761887,0,0,-17.761887,401,259.30273)"
     spreadMethod="pad">
    <stop
       style="stop-color:#bf99c3"
       offset="0"
       id="stop4" />
    <stop
       style="stop-color:#7b5190"
       offset="0.66291797"
       id="stop5" />
    <stop
       style="stop-color:#612c75"
       offset="1"
       id="stop6" />
  </radialGradient>
  <radialGradient
     cx="0"
     cy="0"
     r="1"
     fx="0"
     fy="0"
     id="radialGradient2996"
     xlink:href="#radialGradient624"
     gradientUnits="userSpaceOnUse"
     gradientTransform="matrix(270.55426,0,0,270.55426,300,304.61951)"
     spreadMethod="pad" />
  <radialGradient
     cx="0"
     cy="0"
     r="1"
     fx="0"
     fy="0"
     id="radialGradient2999"
     xlink:href="#radialGradient636"
     gradientUnits="userSpaceOnUse"
     gradientTransform="matrix(166.93976,0,0,166.93976,300.62483,391.01508)"
     spreadMethod="pad" />
  <path
     d="M 600,609.2917 V 306.97639 C 600,116.92308 460.83778,36.11577 454.94288,32.79513 c 0,0 -8.21021,-4.58492 -15.23229,-8.57578 C 442.68088,15.82635 448.21021,0 448.21021,0 H 151.48515 c 0,0 5.71211,15.7045 8.80426,24.28028 -7.02208,3.92993 -15.17136,8.51485 -15.17136,8.51485 C 139.22315,36.11577 0.06092917,116.92308 0.06092917,306.97639 L 0,609.23077 l 600,0.0609 z"
     style="fill:#ffffff"
     id="path6" />
  <path
     d="M 455.88728,585.8492 H 576.5575 V 344.99619 H 455.88728 Z M 23.442498,585.7883 H 144.11272 V 344.99622 H 23.442498 Z M 455.94821,307.02212 H 576.5575 C 576.5575,128.3473 443.3968,53.14547 443.3968,53.14547 l -42.30007,112.87129 c 0,0 54.85148,42.23914 54.85148,141.00533 M 198.9642,166.01676 156.66413,53.14547 c 0,0 -133.160703,75.20183 -133.160703,253.87662 H 144.11272 c 0,-98.76619 54.85148,-141.00533 54.85148,-141.00533 M 184.8591,23.38157 H 415.1866 L 365.04189,166.01676 H 236.57273 Z"
     style="fill:#612c75"
     id="path7" />
  <path
     d="m 196.77075,31.77456 45.69688,125.8492 h 116.67936 l 44.26504,-125.8492 z m 214.1965,131.7441 c 13.51104,12.7342 50.754,55.03427 53.19117,135.06474 v 0 H 568.11881 C 564.72201,158.46154 475.58264,85.39223 447.61615,65.86443 v 0 z M 31.942117,298.5834 H 135.90251 c 2.43717,-80.03047 39.68013,-122.33054 53.19117,-135.06474 v 0 L 152.49048,65.86443 C 124.52399,85.39223 35.399848,158.46154 31.942117,298.5834 M 31.774562,577.45621 H 135.71973 V 353.37395 H 31.774562 Z m 432.505708,0 H 568.22544 V 353.37395 H 464.28027 Z"
     style="fill:url(#radialGradient2996)"
     id="path8" />
  <path
     d="m 290.47982,196.1767 0.12186,105.31607 H 233.60244 V 196.35948 h -18.21782 v 105.13329 h -48.13405 v 13.51104 h 48.13405 v 122.80274 h -48.13405 v 12.91699 h 48.13405 v 135.06473 h 18.21782 V 450.72354 h 56.99924 v 135.06473 h 18.20259 V 450.72354 h 56.99923 v 135.06473 h 16.48134 V 450.72354 h 51.71364 V 437.80655 H 382.28484 V 315.00381 h 51.71364 V 301.49277 H 382.28484 V 196.35948 H 365.8035 V 301.49277 H 308.80427 V 196.1767 Z m 18.32445,118.82711 h 56.99923 v 122.80274 h -56.99923 z m -75.20183,0 h 56.99924 v 122.80274 h -56.99924 z"
     style="fill:url(#radialGradient2999)"
     id="path9" />
</svg>
